!!!OTL: Magelhan (Rolling home) Dor fohr von Hamburg mol so'n ohlen Kassen
!!!ARE: Europa, Mitteleuropa, Deutschland, Schleswig - Holstein, Kiel -
!!    Holtenau
!!!SCT: D0225
!!!YEM: Copyright 1995, estate of Helmut Schaffrath.
**kern
*ICvox
*Ivox
*M3/4
*k[b-e-]
*B-:
{8f
8d
8e-
=1
8.f
16f
8f
8f
8en
8f
=2
8g
[8f
8f]}
{8f
8d
8f
=3
4b-
4dd
8cc
8b-
=4
4.g}
{8g
8a
8b-
=5
4.cc
8b-
8a
8e-
=6
8g
[8f
8f]}
{8f
8f
8b-
=7
4.a
8f
8g
8a
=8
2b-}
{8.d
16e-
=9
2f
8.d
16f
=10
2b-}
{8.a
16b-
=11
4.cc
8b-
8.a
16g
=12
2f}
{8.a
16b-
=13
4.cc
8b-
8.a
16e-
=14
8g
[8f
8f]
8r}
{8f
8b-
=15
4.a
8f
8.g
16a
=16
4.b-}
==
!!!AGN: Staende - Lied, Seemannslied
!! moduliert in die Dominanttonart; mehrstimmig notiert
!!    Inzipit = Variante zum Lied
!!!ONB: ESAC (Essen Associative Code) Database: DVA
!!!AMT: simple triple
!!!AIN: vox
!!!EED: Helmut Schaffrath
!!!EEV: 1.0
*-
